assets/svg/chat-o.svg

<?xml version="1.0" encoding="UTF-8"?>
<svg width="1000px" height="1000px" viewBox="0 0 1000 1000" version="1.1" xmlns="http://www.w3.org/2000/svg" xmlns:xlink="http://www.w3.org/1999/xlink">
    <!-- Generator: sketchtool 52.4 (67378) - http://www.bohemiancoding.com/sketch -->
    <title>chat-o</title>
    <desc>Created with sketchtool.</desc>
    <g id="新版图标" stroke="none" stroke-width="1" fill="none" fill-rule="evenodd">
        <g id="chat-o" fill="#323233">
            <g id="圆角-消息">
                <path d="M152.318765,799.258507 L261.412735,764.026746 L282.806794,776.42097 C346.439795,813.285486 421.372525,833.333333 500,833.333333 C716.304907,833.333333 888.888889,682.322349 888.888889,500 C888.888889,317.677651 716.304907,166.666667 500,166.666667 C283.695093,166.666667 111.111111,317.677651 111.111111,500 C111.111111,564.355103 132.446551,626.043612 172.284971,679.335626 L191.127838,704.541805 L152.318765,799.258507 Z M500,888.888889 C409.440254,888.888889 325.206546,865.189522 254.957665,824.492227 L112.473828,870.507204 C106.230918,872.523344 99.4758977,872.264846 93.4053251,869.777499 C79.2095078,863.960927 72.4167873,847.73768 78.2333592,833.541863 L127.788243,712.599134 C82.1116341,651.49735 55.5555556,578.462271 55.5555556,500 C55.5555556,285.222597 254.540111,111.111111 500,111.111111 C745.459889,111.111111 944.444444,285.222597 944.444444,500 C944.444444,714.777403 745.459889,888.888889 500,888.888889 Z" id="Oval-3" fill-rule="nonzero"></path>
                <circle id="Oval-16" cx="500" cy="500" r="55.5555556"></circle>
                <circle id="Oval-16-Copy" cx="277.777778" cy="500" r="55.5555556"></circle>
                <circle id="Oval-16-Copy-2" cx="722.222222" cy="500" r="55.5555556"></circle>
            </g>
        </g>
    </g>
</svg>

<svg width="1000" height="1000" xmlns="http://www.w3.org/2000/svg"><g fill="#323233" fill-rule="evenodd"><path d="M152.319 799.259l109.094-35.232 21.394 12.394C346.44 813.285 421.373 833.333 500 833.333c216.305 0 388.889-151.01 388.889-333.333 0-182.322-172.584-333.333-388.889-333.333S111.111 317.677 111.111 500c0 64.355 21.336 126.044 61.174 179.336l18.843 25.206-38.81 94.717zM500 888.889c-90.56 0-174.793-23.7-245.042-64.397l-142.484 46.015a27.778 27.778 0 0 1-19.069-.73c-14.195-5.816-20.988-22.04-15.172-36.235l49.555-120.943C82.112 651.497 55.556 578.462 55.556 500c0-214.777 198.984-388.889 444.444-388.889S944.444 285.223 944.444 500c0 214.777-198.984 388.889-444.444 388.889z" fill-rule="nonzero"/><circle cx="500" cy="500" r="55.556"/><circle cx="277.778" cy="500" r="55.556"/><circle cx="722.222" cy="500" r="55.556"/></g></svg>
